app/img/intro/skype.svg

<svg width="40" height="40" viewBox="0 0 40 40" fill="none" xmlns="http://www.w3.org/2000/svg">
<path d="M22.5245 19.5821L22.5245 19.582C21.8047 19.3481 21.0734 19.151 20.3336 18.9915L20.3233 18.9893L20.3234 18.9892C19.8387 18.8776 19.3565 18.7554 18.8771 18.6229L18.8738 18.6219C18.541 18.5282 18.2189 18.4001 17.9126 18.2397C17.5875 18.0795 17.2993 17.8532 17.0666 17.5752L17.059 17.5661L17.0517 17.5568C16.8088 17.2473 16.6802 16.8636 16.6875 16.4704C16.6908 15.7563 17.0959 15.2246 17.6535 14.8491C18.2586 14.4409 19.0192 14.2729 19.8458 14.2729C20.6817 14.2729 21.4705 14.4059 22.0182 14.8341L22.0184 14.8343C22.4733 15.1902 22.843 15.6731 23.1337 16.2407C23.3365 16.5985 23.4829 16.7798 23.5814 16.8666L23.59 16.8741L23.5899 16.8742C23.6182 16.9 23.7121 16.9646 23.9667 16.9646C24.1832 16.9646 24.3345 16.8968 24.4698 16.7514L24.4777 16.743L24.4858 16.7348C24.6152 16.6041 24.6883 16.428 24.6896 16.2441C24.6893 15.9972 24.62 15.7132 24.4588 15.4024C24.2593 15.0475 23.9901 14.7365 23.6674 14.488L23.6662 14.487C23.2344 14.1531 22.7446 13.9018 22.2214 13.7459C21.5204 13.5372 20.7914 13.4381 20.06 13.4519L20.0529 13.4521H20.0458C18.9677 13.4521 18.0522 13.6054 17.3076 13.8901L22.5245 19.5821ZM22.5245 19.5821L22.531 19.5841M22.5245 19.5821L22.531 19.5841M22.531 19.5841C23.0838 19.7582 23.6108 20.0055 24.0979 20.3194C24.4759 20.5703 24.7879 20.9085 25.0075 21.3054C25.2097 21.6756 25.3312 22.1691 25.3312 22.8H25.3312L25.3313 22.8076C25.3382 23.4924 25.134 24.1627 24.7465 24.7273C24.3673 25.2784 23.7897 25.7434 22.992 26.0848C22.2038 26.4185 21.2325 26.6021 20.0854 26.6021C18.6993 26.6021 17.6002 26.3521 16.7798 25.9051C16.193 25.5804 15.7172 25.145 15.3544 24.6034L15.3519 24.5997C14.9797 24.0513 14.825 23.5517 14.825 23.1208H14.825L14.825 23.1138C14.8242 23.0308 14.8407 22.9485 14.8733 22.8722C14.906 22.7958 14.9542 22.7271 15.0148 22.6703L15.0169 22.6683C15.088 22.6012 15.1716 22.5488 15.263 22.5142L14.997 21.8129L15.263 22.5142C15.3544 22.4795 15.4517 22.4632 15.5494 22.4663L15.5724 22.467L15.5955 22.4663C15.7321 22.4622 15.8654 22.508 15.9705 22.5948C16.1484 22.7665 16.286 22.9755 16.3734 23.2068L16.3766 23.2152L16.38 23.2235C16.5555 23.6565 16.7804 24.0678 17.05 24.4494L17.0596 24.4631L17.0698 24.4763C17.3689 24.862 17.7566 25.1698 18.2 25.3738C18.7135 25.6235 19.3355 25.7188 20.0083 25.7188C20.9568 25.7188 21.8159 25.5135 22.5014 25.0328L22.5014 25.0328L22.5063 25.0294C23.162 24.5618 23.5713 23.9313 23.577 23.1213M22.531 19.5841L23.577 23.1213M15.6533 15.0609L15.652 15.0626C15.2906 15.5444 15.0987 16.1322 15.1062 16.7344L15.1063 16.7438H15.1062C15.1062 17.4384 15.2896 17.9776 15.6113 18.3924L15.6123 18.3936C15.9557 18.8382 16.442 19.2118 17.0774 19.4919C17.7406 19.7792 18.5903 20.0431 19.622 20.2713C20.4115 20.4403 21.0705 20.6084 21.568 20.769M15.6533 15.0609L21.57 20.7696C21.5694 20.7694 21.5687 20.7692 21.568 20.769M15.6533 15.0609C16.0111 14.5812 16.5531 14.1787 17.3074 13.8901L15.6533 15.0609ZM21.568 20.769C22.1002 20.9382 22.5759 21.1983 22.9535 21.5618L22.9582 21.5663L22.9582 21.5664C23.1663 21.7702 23.3289 22.0157 23.4354 22.2868C23.5397 22.5523 23.5879 22.8364 23.577 23.1213M21.568 20.769L23.577 23.1213M20.1093 31.4021C20.6976 31.403 21.2847 31.3544 21.8645 31.257C22.7512 31.7014 23.7458 31.9479 24.7937 31.9479C28.5073 31.9479 31.4789 28.8563 31.4812 25.0921V25.0917C31.4812 24.0909 31.2719 23.143 30.8977 22.2858C31.0305 21.5827 31.1 20.8576 31.1 20.1187C31.1 13.9061 26.2009 8.83333 20.1104 8.83333C19.5725 8.83333 19.0383 8.87314 18.517 8.95182C17.5407 8.37901 16.4107 8.04792 15.2042 8.04792C11.4886 8.04792 8.5151 11.1435 8.51458 14.9094M20.1093 31.4021L20.1104 30.6521M20.1093 31.4021C20.1097 31.4021 20.1101 31.4021 20.1104 31.4021V30.6521M20.1093 31.4021C14.0233 31.4015 9.12292 26.3246 9.12292 20.1167C9.12292 19.4332 9.18287 18.7668 9.2952 18.1208C8.78051 17.1302 8.51205 16.0285 8.51458 14.9094M20.1104 30.6521C20.7397 30.653 21.3677 30.593 21.9854 30.4729L20.1104 30.6521ZM8.51458 14.9094C8.51458 14.9098 8.51458 14.9101 8.51458 14.9104H9.26458L8.51458 14.9086C8.51458 14.9089 8.51458 14.9092 8.51458 14.9094ZM0.75 20C0.75 9.36838 9.36838 0.75 20 0.75C30.6316 0.75 39.25 9.36838 39.25 20C39.25 30.6316 30.6316 39.25 20 39.25C9.36838 39.25 0.75 30.6316 0.75 20Z" stroke="white" stroke-width="1.5"/>
</svg>

<svg width="40" height="40" fill="none" xmlns="http://www.w3.org/2000/svg"><path d="M22.524 19.582h0a22.291 22.291 0 00-2.19-.59l-.01-.003h0a34.263 34.263 0 01-1.447-.366l-.003-.001a4.983 4.983 0 01-.961-.382 2.604 2.604 0 01-.846-.665l-.008-.009-.007-.01a1.708 1.708 0 01-.364-1.086c.003-.714.408-1.246.966-1.621l4.87 4.733zm0 0l.007.002m-.006-.002l.006.002m0 0c.553.174 1.08.422 1.567.736.378.25.69.588.91.985.202.37.323.864.323 1.495h0v.008a3.334 3.334 0 01-.585 1.92c-.379.55-.956 1.015-1.754 1.357-.788.334-1.76.517-2.907.517-1.386 0-2.485-.25-3.305-.697a4.049 4.049 0 01-1.426-1.302l-.002-.003c-.372-.549-.527-1.048-.527-1.48h0v-.006a.6.6 0 01.19-.444l.002-.002a.74.74 0 01.532-.202l.023.001h.024a.563.563 0 01.374.128c.178.172.316.38.403.612l.004.008.003.009c.175.433.4.844.67 1.225l.01.014.01.013c.299.386.687.694 1.13.898.514.25 1.136.345 1.808.345.949 0 1.808-.206 2.493-.686h0l.005-.004c.656-.467 1.065-1.098 1.071-1.908m-1.046-3.537l1.046 3.537m-1.559-8.287h0c.455.356.825.84 1.116 1.407.203.358.349.539.447.626l.009.007h0c.028.026.122.09.377.09a.632.632 0 00.503-.213l.008-.008.008-.008a.704.704 0 00.204-.49c0-.248-.07-.532-.231-.843a3.025 3.025 0 00-.792-.914v-.001a4.43 4.43 0 00-1.446-.741 7.105 7.105 0 00-2.161-.294h-.014c-1.078 0-1.994.153-2.738.438-.755.289-1.297.691-1.655 1.17l-.001.003a2.73 2.73 0 00-.546 1.671v.01h0c0 .694.184 1.234.505 1.648l.001.002c.344.444.83.818 1.465 1.098.664.287 1.513.551 2.545.78.79.168 1.448.336 1.946.497m.45-5.935l-.448 5.936-.002-.001m.45-5.935c-.547-.428-1.336-.561-2.172-.561-.827 0-1.587.168-2.192.576l4.364-.015zm-.45 5.935c.532.17 1.008.43 1.385.793l.005.004h0a2.065 2.065 0 01.619 1.555m-2.009-2.352l2.009 2.352m-3.468 8.281c.589.001 1.176-.048 1.755-.145.887.444 1.882.69 2.93.69 3.713 0 6.685-3.09 6.687-6.855v0c0-1.001-.21-1.949-.583-2.806.133-.703.202-1.428.202-2.167 0-6.213-4.9-11.286-10.99-11.286-.537 0-1.072.04-1.593.119a6.523 6.523 0 00-3.313-.904c-3.715 0-6.689 3.095-6.69 6.861M20.11 31.402l.001-.75m0 .75s0 0 0 0v-.75m0 .75c-6.087 0-10.987-5.077-10.987-11.285 0-.684.06-1.35.172-1.996a6.932 6.932 0 01-.78-3.212M20.11 30.652a9.663 9.663 0 001.875-.18l-1.875.18zM8.515 14.91v.001h.75l-.75-.001s0 0 0 0zM.75 20C.75 9.368 9.368.75 20 .75S39.25 9.368 39.25 20 30.632 39.25 20 39.25.75 30.632.75 20z" stroke="#fff" stroke-width="1.5"/></svg>
